src/lib/packages/icons/src/assets/line/face-smirking.svg

<svg xmlns="http://www.w3.org/2000/svg" width="24" height="24" fill="none"><path fill="currentColor" d="M16.52 14.46c.29.29.29.77 0 1.06l-.57.57c-.42.42-.99.66-1.59.66H8.98c-.41 0-.75-.34-.75-.75s.34-.75.75-.75h5.38c.2 0 .39-.08.53-.22l.57-.57c.29-.29.77-.29 1.06 0ZM22.75 12c0 5.93-4.82 10.75-10.75 10.75S1.25 17.93 1.25 12 6.07 1.25 12 1.25 22.75 6.07 22.75 12Zm-1.5 0c0-5.1-4.15-9.25-9.25-9.25S2.75 6.9 2.75 12 6.9 21.25 12 21.25s9.25-4.15 9.25-9.25ZM16.5 9.25H14c-.41 0-.75.34-.75.75s.34.75.75.75h1.27c0 .08-.02.16-.02.25 0 1.01.53 1.75 1.25 1.75s1.25-.74 1.25-1.75-.53-1.75-1.25-1.75ZM8.25 11c0 1.01.53 1.75 1.25 1.75s1.25-.74 1.25-1.75-.53-1.75-1.25-1.75H7c-.41 0-.75.34-.75.75s.34.75.75.75h1.27c0 .08-.02.16-.02.25Z"/></svg>

<svg width="24" height="24" viewBox="0 0 24 24" fill="none" xmlns="http://www.w3.org/2000/svg">
<path d="M16.52 14.46C16.81 14.75 16.81 15.23 16.52 15.52L15.95 16.09C15.53 16.51 14.96 16.75 14.36 16.75H8.97998C8.56998 16.75 8.22998 16.41 8.22998 16C8.22998 15.59 8.56998 15.25 8.97998 15.25H14.36C14.56 15.25 14.75 15.17 14.89 15.03L15.46 14.46C15.75 14.17 16.23 14.17 16.52 14.46ZM22.75 12C22.75 17.93 17.93 22.75 12 22.75C6.07 22.75 1.25 17.93 1.25 12C1.25 6.07 6.07 1.25 12 1.25C17.93 1.25 22.75 6.07 22.75 12ZM21.25 12C21.25 6.9 17.1 2.75 12 2.75C6.9 2.75 2.75 6.9 2.75 12C2.75 17.1 6.9 21.25 12 21.25C17.1 21.25 21.25 17.1 21.25 12ZM16.5 9.25H14C13.59 9.25 13.25 9.59 13.25 10C13.25 10.41 13.59 10.75 14 10.75H15.27C15.27 10.83 15.25 10.91 15.25 11C15.25 12.01 15.78 12.75 16.5 12.75C17.22 12.75 17.75 12.01 17.75 11C17.75 9.99 17.22 9.25 16.5 9.25ZM8.25 11C8.25 12.01 8.78 12.75 9.5 12.75C10.22 12.75 10.75 12.01 10.75 11C10.75 9.99 10.22 9.25 9.5 9.25H7C6.59 9.25 6.25 9.59 6.25 10C6.25 10.41 6.59 10.75 7 10.75H8.27002C8.27002 10.83 8.25 10.91 8.25 11Z" fill="currentColor"/>
</svg>
